dist/res/image/instagram_icon.svg

<svg width="24" height="24" viewBox="0 0 24 24" fill="none" xmlns="http://www.w3.org/2000/svg">
<path d="M6.90347 0.198242H16.8167C20.5932 0.198242 23.6616 3.26664 23.6616 7.04312V16.9564C23.6616 18.7718 22.9405 20.5128 21.6568 21.7965C20.3731 23.0801 18.6321 23.8013 16.8167 23.8013H6.90347C3.12699 23.8013 0.0585938 20.7329 0.0585938 16.9564V7.04312C0.0585938 5.22775 0.779749 3.48672 2.06341 2.20306C3.34708 0.919397 5.0881 0.198242 6.90347 0.198242ZM6.66744 2.55854C5.54066 2.55854 4.46002 3.00616 3.66327 3.80292C2.86651 4.59967 2.4189 5.68031 2.4189 6.80709V17.1924C2.4189 19.5409 4.31894 21.441 6.66744 21.441H17.0528C18.1796 21.441 19.2602 20.9934 20.0569 20.1966C20.8537 19.3998 21.3013 18.3192 21.3013 17.1924V6.80709C21.3013 4.45859 19.4013 2.55854 17.0528 2.55854H6.66744ZM18.0559 4.32877C18.4471 4.32877 18.8224 4.48419 19.099 4.76084C19.3757 5.0375 19.5311 5.41272 19.5311 5.80396C19.5311 6.19521 19.3757 6.57043 19.099 6.84708C18.8224 7.12373 18.4471 7.27915 18.0559 7.27915C17.6647 7.27915 17.2894 7.12373 17.0128 6.84708C16.7361 6.57043 16.5807 6.19521 16.5807 5.80396C16.5807 5.41272 16.7361 5.0375 17.0128 4.76084C17.2894 4.48419 17.6647 4.32877 18.0559 4.32877ZM11.8601 6.099C13.4251 6.099 14.926 6.72068 16.0326 7.82729C17.1392 8.9339 17.7609 10.4348 17.7609 11.9998C17.7609 13.5647 17.1392 15.0656 16.0326 16.1722C14.926 17.2788 13.4251 17.9005 11.8601 17.9005C10.2951 17.9005 8.79425 17.2788 7.68764 16.1722C6.58104 15.0656 5.95935 13.5647 5.95935 11.9998C5.95935 10.4348 6.58104 8.9339 7.68764 7.82729C8.79425 6.72068 10.2951 6.099 11.8601 6.099ZM11.8601 8.4593C10.9211 8.4593 10.0206 8.83231 9.35663 9.49628C8.69266 10.1602 8.31965 11.0608 8.31965 11.9998C8.31965 12.9387 8.69266 13.8393 9.35663 14.5032C10.0206 15.1672 10.9211 15.5402 11.8601 15.5402C12.7991 15.5402 13.6996 15.1672 14.3636 14.5032C15.0276 13.8393 15.4006 12.9387 15.4006 11.9998C15.4006 11.0608 15.0276 10.1602 14.3636 9.49628C13.6996 8.83231 12.7991 8.4593 11.8601 8.4593Z" fill="#FB9EBC"/>
</svg>

<svg xmlns="http://www.w3.org/2000/svg" width="24" height="24" fill="none"><path fill="#FB9EBC" d="M6.903.198h9.914a6.85 6.85 0 0 1 6.845 6.845v9.913a6.845 6.845 0 0 1-6.845 6.845H6.903A6.85 6.85 0 0 1 .06 16.956V7.043A6.845 6.845 0 0 1 6.903.198m-.236 2.36a4.25 4.25 0 0 0-4.248 4.25v10.384c0 2.349 1.9 4.249 4.248 4.249h10.386a4.25 4.25 0 0 0 4.248-4.249V6.807c0-2.348-1.9-4.248-4.248-4.248zm11.389 1.77a1.475 1.475 0 1 1 0 2.951 1.475 1.475 0 0 1 0-2.95M11.86 6.1a5.9 5.9 0 1 1 0 11.802 5.9 5.9 0 0 1 0-11.802m0 2.36a3.54 3.54 0 1 0 0 7.081 3.54 3.54 0 0 0 0-7.08"/></svg>
